components/Company/logos/logo-glu.svg

<svg height="140" viewBox="0 0 400 140" width="400" xmlns="http://www.w3.org/2000/svg"><g fill="none" transform="translate(152 20)"><path d="m97 20.379663-13.1463079-.0142139-13.9322632 18.3242339v-18.31002h-11.3676342v-20.379663h-13.0036158l-5.5703526 7.40543326-.0056158 12.98692064h-6.1296342s-3.0868974-.5787081-4.7999684-.7218622c-1.1754868-.0992433-2.3323395-.1261482-3.7630895-.1261482-5.884071 0-10.5416026 1.5488057-13.8424105 4.6012371-.8929105.8254205-1.6760579 1.7503382-2.34944211 2.7686615-.08704474.1248791-5.1438079 7.3247187-5.22804474 7.4508669-2.17688421 3.0991342-3.28396052 7.1188712-3.28396052 12.0051474 0 4.6921045.98710263 8.6011762 2.93425 11.615281.78467894 1.2127488 1.72328158 2.2864046 2.79589736 3.1915244-.91588421 2.3404682-1.10682105 3.4509279-1.10682105 4.3842216 0 1.1701072.07989737 2.2183811.24096842 3.1773106-.06841052.0992434-2.73463421 3.8976499-2.81861579 4.022529-1.82870526 2.524741-2.62333947 5.3190382-2.62333947 8.9047441 0 5.1644623.57485263 10.4494887 4.75453158 14.1230161 3.35926316 2.9516652 8.35067892 4.2111168 16.68680792 4.2111168 7.4376026 0 12.6556921-1.2807724 16.4215894-4.0283669 1.3794422-1.0056322 2.6062369-2.3176244 3.6390316-3.6225097 2.2595895-2.8595287 2.7045132-3.5077833 4.7986921-7.0366337.3167816-.5347974.5975711-1.1076676 1.0654685-2.1389356.3109105-.6807435.8245-1.9871517 1.0570447-3.1049721h4.2266474l3.7544105-4.9020131c1.5050316 1.9787757 3.4435 3.4042251 5.8955579 4.3375189 2.3379552.890652 4.1082052 1.3048852 7.68725 1.3048852 2.6718395 0 5.5090895-.4624588 8.4418079-1.3744317v.6226188h12.6242947l5.9468658-7.8224584z" fill="#212721"/><g fill="#fff"><path d="m46.0119873 67.1576129c-.740695-2.1192638-1.9492106-3.8036512-3.5917194-5.0046179-3.0259245-2.21256-7.2310476-2.6661461-12.6108589-2.6661461-2.3383511 0-4.7230583-.018457-6.3530384-.1468972-1.0333647-.0806544-1.5851274-.1936717-1.8652685-.2740733-.0238045-.2386763-.0363331-.5989663-.0363331-1.079353.076926-.430831.4397563-1.5597398.9030666-2.8555196 1.0571692.0763562 2.0920374.125659 2.488194.125659 5.9734197 0 10.0958535-1.169868 12.9761949-3.6820375 3.1098667-2.7141848 4.6208244-6.9061908 4.6208244-12.8207623 0-2.9457817-.6805574-6.4541216-.9606985-7.2679977-.0405929-.1200967-.0826892-.2386764-.1260384-.3559919h3.1715077v-8.3076557h-11.6025514c-.4425127-.127176-.9003103-.2275515-1.3681309-.3008737-2.1088259-.3291913-4.2539849-.521346-6.3866152-.521346-5.21318 0-9.2907612 1.3465997-12.1192339 3.9998513-3.042713 2.8555196-4.58449123 7.1463841-4.58449123 12.7542666 0 4.2499052.85270133 7.7468674 2.53730643 10.3932924.9466664 1.4864175 2.1381429 2.6972448 3.5553862 3.6170589-.0363332.0960774-.0784295.1906377-.1175189.286715-1.1929801 2.8752408-1.436788 4.0041495-1.436788 4.8180257 0 1.6616323.1721439 3.0378137.5322179 4.2076817.0588848.1936717.1232821.3800112.1904358.5610411-3.3915112 2.6858673-5.8278365 5.4834876-5.8278365 11.2749284 0 4.6329504.47608949 9.3506005 3.9375107 12.4377171 2.8690656 2.5586912 7.3415505 3.6494218 14.9534697 3.6494218 6.8178521 0 11.5366507-1.1402863 14.8427164-3.5902584 1.8106435-1.3395204 3.1702548-3.0843354 4.0452572-5.1810969.8191245-1.9738836 1.221046-4.231701 1.221046-6.9006283.0004994-2.9174643-.3257472-5.2630155-.9880127-7.1704035m-27.1020207-35.0935118c1.1145505-1.1162669 3.1687514-1.6588511 6.2801215-1.6588511 3.5215588 0 5.7997723.5509277 6.967695 1.6884328 1.1538906 1.1233464 1.6916211 3.239829 1.6916211 6.6604351 0 2.1222978-.1693876 5.1047406-1.6537845 6.5006432-1.1621595 1.0907306-3.3872515 1.5994348-7.0055316 1.5994348-3.2023283 0-5.2089202-.5001078-6.3167053-1.5726343-1.1411113-1.1021082-1.6956303-3.2383119-1.6956303-6.5276966 0-3.3328723.5642914-5.5198959 1.7322141-6.6897639m17.2722761 47.6740807c-1.7194347 1.2320655-4.8170233 1.8580852-9.2095753 1.8580852-4.7426031 0-7.6650408-.5410671-8.9281814-1.6517717-1.0208361-.8957948-1.4352846-2.6646292-1.4352846-6.1163339 0-2.4413758.4199611-3.472943 4.0943697-6.1517308 1.9477071.0677598 6.3472752.214657 8.9449698.214657 3.4559086 0 6.0057436.1696523 7.2155121 1.0060308.39766.2728091 1.4435535.9933891 1.4435535 5.4311508.0002505 3.4446254-1.1355988 4.6976761-2.1253638 5.4099126"/><path d="m86.2548673 23v36.6836722c-2.0158151 1.069832-6.160748 2.9200656-10.7093064 2.9200656-4.6058521 0-5.6122181-1.1319611-6.2499-2.291956-.803911-1.4678621-1.5505282-4.0590984-1.5505282-13.0210885v-24.2906933h-8.7451327v24.4558656c0 7.8752368.5125607 13.9313045 3.0149872 17.891653 1.3367684 2.1128931 3.1642592 3.5847961 5.5908935 4.4965274 2.0946902.7874731 4.6186982 1.155954 7.9396802 1.155954 4.0760777 0 7.910905-1.1531759 10.7093064-2.2934714v1.5441344h8.7451327v-47.250663z"/><path d="m47 2v62.7395108c0 2.9051981 2.4464941 5.2604892 5.4661458 5.2604892h3.5338542v-68z"/></g></g></svg>

<?xml version="1.0" encoding="UTF-8"?>
<svg width="400px" height="140px" viewBox="0 0 400 140" version="1.1" xmlns="http://www.w3.org/2000/svg" xmlns:xlink="http://www.w3.org/1999/xlink">
    <title>Artboard</title>
    <g id="Artboard" stroke="none" stroke-width="1" fill="none" fill-rule="evenodd">
        <g id="glu" transform="translate(152.000000, 20.000000)" fill-rule="nonzero">
            <path d="M97,20.379663 L83.8536921,20.3654491 L69.9214289,38.689683 L69.9214289,20.379663 L58.5537947,20.379663 L58.5537947,0 L45.5501789,0 L39.9798263,7.40543326 L39.9742105,20.3923539 L33.8445763,20.3923539 C33.8445763,20.3923539 30.7576789,19.8136458 29.0446079,19.6704917 C27.8691211,19.5712484 26.7122684,19.5443435 25.2815184,19.5443435 C19.3974474,19.5443435 14.7399158,21.0931492 11.4391079,24.1455806 C10.5461974,24.9710011 9.76305,25.8959188 9.08966579,26.9142421 C9.00262105,27.0391212 3.94585789,34.2389608 3.86162105,34.365109 C1.68473684,37.4642432 0.577660526,41.4839802 0.577660526,46.3702564 C0.577660526,51.0623609 1.56476316,54.9714326 3.51191053,57.9855374 C4.29658947,59.1982862 5.23519211,60.271942 6.30780789,61.1770618 C5.39192368,63.51753 5.20098684,64.6279897 5.20098684,65.5612834 C5.20098684,66.7313906 5.28088421,67.7796645 5.44195526,68.738594 C5.37354474,68.8378374 2.70732105,72.6362439 2.62333947,72.761123 C0.794634211,75.285864 0,78.0801612 0,81.6658671 C0,86.8303294 0.574852632,92.1153558 4.75453158,95.7888832 C8.11379474,98.7405484 13.1052105,100 21.4413395,100 C28.8789421,100 34.0970316,98.7192276 37.8629289,95.9716331 C39.2423711,94.9660009 40.4691658,93.6540087 41.5019605,92.3491234 C43.76155,89.4895947 44.2064737,88.8413401 46.3006526,85.3124897 C46.6174342,84.7776923 46.8982237,84.2048221 47.3661211,83.1735541 C47.6770316,82.4928106 48.1906211,81.1864024 48.4231658,80.068582 L52.6498132,80.068582 L56.4042237,75.1665689 C57.9092553,77.1453446 59.8477237,78.570794 62.2997816,79.5040878 C64.6377368,80.3947398 66.4079868,80.808973 69.9870316,80.808973 C72.6588711,80.808973 75.4961211,80.3465142 78.4288395,79.4345413 L78.4288395,80.0571601 L91.0531342,80.0571601 L97,72.2347017 L97,20.379663 Z" id="Path" fill="#212721"></path>
            <path d="M46.0119873,67.1576129 C45.2712923,65.0383491 44.0627767,63.3539617 42.4202679,62.152995 C39.3943434,59.940435 35.1892203,59.4868489 29.809409,59.4868489 C27.4710579,59.4868489 25.0863507,59.4683919 23.4563706,59.3399517 C22.4230059,59.2592973 21.8712432,59.14628 21.5911021,59.0658784 C21.5672976,58.8272021 21.554769,58.4669121 21.554769,57.9865254 C21.631695,57.5556944 21.9945253,56.4267856 22.4578356,55.1310058 C23.5150048,55.207362 24.549873,55.2566648 24.9460296,55.2566648 C30.9194493,55.2566648 35.0418831,54.0867968 37.9222245,51.5746273 C41.0320912,48.8604425 42.5430489,44.6684365 42.5430489,38.753865 C42.5430489,35.8080833 41.8624915,32.2997434 41.5823504,31.4858673 C41.5417575,31.3657706 41.4996612,31.2471909 41.456312,31.1298754 L44.6278197,31.1298754 L44.6278197,22.8222197 L33.0252683,22.8222197 C32.5827556,22.6950437 32.124958,22.5946682 31.6571374,22.521346 C29.5483115,22.1921547 27.4031525,22 25.2705222,22 C20.0573422,22 15.979761,23.3465997 13.1512883,25.9998513 C10.1085753,28.8553709 8.56679707,33.1462354 8.56679707,38.7541179 C8.56679707,43.0040231 9.4194984,46.5009853 11.1041035,49.1474103 C12.0507699,50.6338278 13.2422464,51.8446551 14.6594897,52.7644692 C14.6231565,52.8605466 14.5810602,52.9551069 14.5419708,53.0511842 C13.3489907,55.926425 13.1051828,57.0553337 13.1051828,57.8692099 C13.1051828,59.5308422 13.2773267,60.9070236 13.6374007,62.0768916 C13.6962855,62.2705633 13.7606828,62.4569028 13.8278365,62.6379327 C10.4363253,65.3238 8,68.1214203 8,73.9128611 C8,78.5458115 8.47608949,83.2634616 11.9375107,86.3505782 C14.8065763,88.9092694 19.2790612,90 26.8909804,90 C33.7088325,90 38.4276311,88.8597137 41.7336968,86.4097416 C43.5443403,85.0702212 44.9039516,83.3254062 45.778954,81.2286447 C46.5980785,79.2547611 47,76.9969437 47,74.3280164 C47.0004994,71.4105521 46.6742528,69.0650009 46.0119873,67.1576129 M18.9099666,32.0641011 C20.0245171,30.9478342 22.078718,30.40525 25.1900881,30.40525 C28.7116469,30.40525 30.9898604,30.9561777 32.1577831,32.0936828 C33.3116737,33.2170292 33.8494042,35.3335118 33.8494042,38.7541179 C33.8494042,40.8764157 33.6800166,43.8588585 32.1956197,45.2547611 C31.0334602,46.3454917 28.8083682,46.8541959 25.1900881,46.8541959 C21.9877598,46.8541959 19.9811679,46.3540881 18.8733828,45.2815616 C17.7322715,44.1794534 17.1777525,42.0432497 17.1777525,38.753865 C17.1777525,35.4209927 17.7420439,33.2339691 18.9099666,32.0641011 M36.1822427,79.7381818 C34.462808,80.9702473 31.3652194,81.596267 26.9726674,81.596267 C22.2300643,81.596267 19.3076266,81.0551999 18.044486,79.9444953 C17.0236499,79.0487005 16.6092014,77.2798661 16.6092014,73.8281614 C16.6092014,71.3867856 17.0291625,70.3552184 20.7035711,67.6764306 C22.6512782,67.7441904 27.0508463,67.8910876 29.6485409,67.8910876 C33.1044495,67.8910876 35.6542845,68.0607399 36.864053,68.8971184 C37.261713,69.1699275 38.3076065,69.8905075 38.3076065,74.3282692 C38.307857,77.7728946 37.1720077,79.0259453 36.1822427,79.7381818" id="Shape" fill="#FFFFFF"></path>
            <path d="M86.2548673,23 L86.2548673,59.6836722 C84.2390522,60.7535042 80.0941193,62.6037378 75.5455609,62.6037378 C70.9397088,62.6037378 69.9333428,61.4717767 69.2956609,60.3117818 C68.4917499,58.8439197 67.7451327,56.2526834 67.7451327,47.2906933 L67.7451327,23 L59,23 L59,47.4558656 C59,55.3311024 59.5125607,61.3871701 62.0149872,65.3475186 C63.3517556,67.4604117 65.1792464,68.9323147 67.6058807,69.844046 C69.7005709,70.6315191 72.2245789,71 75.5455609,71 C79.6216386,71 83.4564659,69.8468241 86.2548673,68.7065286 L86.2548673,70.250663 L95,70.250663 L95,23 L86.2548673,23 Z" id="Path" fill="#FFFFFF"></path>
            <path d="M47,2 L47,64.7395108 C47,67.6447089 49.4464941,70 52.4661458,70 L56,70 L56,2 L47,2 Z" id="Path" fill="#FFFFFF"></path>
        </g>
    </g>
</svg>
